dapp/src/images/medium-icon-gray.svg

<svg fill="none" height="17" viewBox="0 0 21 17" width="21" xmlns="http://www.w3.org/2000/svg"><path d="m18.9042 2.62163 1.5958-1.54273v-.337689h-5.5283l-3.94 9.909889-4.48253-9.909889h-5.79667v.337689l1.86417 2.26778c.18166.16758.27666.41264.2525.65937v8.91205c.0575.3208-.04584.6509-.26917.8842l-2.1 2.5718v.3334h5.95417v-.3377l-2.1-2.5675c-.2275-.2341-.335-.5584-.28917-.8842v-7.70868l5.22667 11.50228h.6075l4.49413-11.50228v9.16298c0 .2417 0 .2913-.1566.4497l-1.6167 1.5806v.3385h7.8433v-.3377l-1.5583-1.5419c-.1367-.1044-.2075-.2795-.1783-.4497v-11.34058c-.0292-.17095.0408-.34611.1775-.44969z" fill="#9ea2ab"/></svg>

<svg width="21" height="17" viewBox="0 0 21 17" fill="none" xmlns="http://www.w3.org/2000/svg">
<path d="M18.9042 2.62163L20.5 1.0789V0.741211H14.9717L11.0317 10.6511L6.54917 0.741211H0.7525V1.0789L2.61667 3.34668C2.79833 3.51426 2.89333 3.75932 2.86917 4.00605V12.9181C2.92667 13.2389 2.82333 13.569 2.6 13.8023L0.5 16.3741V16.7075H6.45417V16.3698L4.35417 13.8023C4.12667 13.5682 4.01917 13.2439 4.065 12.9181V5.20942L9.29167 16.7117H9.89917L14.3933 5.20942V14.3724C14.3933 14.6141 14.3933 14.6637 14.2367 14.8221L12.62 16.4027V16.7412H20.4633V16.4035L18.905 14.8616C18.7683 14.7572 18.6975 14.5821 18.7267 14.4119V3.07132C18.6975 2.90037 18.7675 2.72521 18.9042 2.62163Z" fill="#9EA2AB"/>
</svg>
